X:921
T:Waltz II
%%stretchstaff 0
T:Tune
C:Martin Keates
C:Transcription used with permission
M:3/4
L:1/8
K:Dm
P:A
Ac|"Dm"d2 dA df|e4 dc|"F"A2 AG Ac|A6|\
"Bb"B2 Bd df|"Gm7"B2 Bd df|"Bb"B2 Bc BG|"C"E4|
Ac|"Bb"d2 dB df|"C"e4 dc|"F"A2 AG Ac|A6|\
"Bb"B2 Bd df|"Gm7"B2 Bd df|"Bb"B2 Bc BG|"C"E4||
P:B
|:FG|"F"A2 AF GA|c3A GF|"C"G2 GE FG|c2 A2 GE|"Dm"F2 FD FG|
A3F GA|[1"Bb"B2 Bc BG|"C"E4:|[2"Bb"B2 Bc AB|"C"c3c|]
P:last
"Bb"B2 Bc AB|"C"c3c Ac|"Dm"d6-|d4|]
T:Harmony
P:A
"Dm"a6|g4 f2-|"F"f2 fe de|c6|\
"Bb"d2-dc df|"Gm7"g4 f2|"Bb"g2-gf ef|"C"g4 a2|
"Bb"b6|"C"a4 g2|"F"f2-fe fg|a6|\
"Bb"d2-dc df|"Gm7"g4 f2|"Bb"d2-dc df|"C"e2-ef/e/ de||
P:B
|:"F"f2 fe de|f2 fg fd|"C"e2 ed cd|e2 f2 e2|"Dm"d2-dA de|
[1"Dm"f4 g2|"Bb"a2-ag fa|"C"g2-ga/g/ fe:|\
[2"Dm"f4 e2|"Bb"d2 de fd|"C"e2 f2 g2|]
P:last
"Dm"f4 e2|"Bb"d2 de fd|"C"e2 f2 e2|"Dm"d6-|d4|]




